X:1
T:Title
%%score 1 2
L:1/8
Q:1/4=66
M:12/8
K:Eb
V:1 treble nm="upper"
V:2 bass nm="lower"
V:1
 B g4 f g f2- f e2 | B g2 c c'2 g b2- b a2 | g f2- f g2 d e2- e c2- | %3
 cBd' c'b/a/g/a/ c/d/ e2- e z2 | B g2- gf/g/f/=e/ f/g/f _e2- e/f/e/d/ | %5
 e/f/g/=B/c/_d/ c/f/=e/a/g/_d'/ c'/g/ b2- b a2 | g f2- f/-f/4-[=ef]/8f/8gg d _e2- e c2- | %7
 cBd' c'b/a/g/a/4a/4 c/d/ e4 d | e f2- f g2 f f2- f c2- | cee eed/e/ f/-f/4^d/4 e2- e B2- | %10
 B b2- b =a2 g [=Af]2- [Af] [Bd]2- | [Bd] [Ge]2- [Ge][=Ad][Ac] [Ad][FB][^F=B] [=EB][E_Bc][=FAc] | %12
 [Ad]/-[Ad]/8-[GAd]/8B/8e/8 g2 =A/^A/=B/A/^c/d/ g/-g/4f/4 f2 e-e/f/e/d/ | %13
 e/f/g/=B/c/_d/ c/f/=e/a/g/_d'/ c'/g/ b2- b a2 | g f2- f/-f/4-[=ef]/8f/8gg d _e2- e c2- | %15
 cBd' ^c'=c'/4=b/4^a/4=a/4^g/4f/4d/4=B/4 ^A/4d/4=g/8-[f-g]/8f/8e/8 e4 d | e f2- f g2 f f2- f c2- | %17
 c^d/-d/4d/-d/4e/- e/4e/-e/4e=d/e/ f/-f/4e/4 e2- e B2- | B b2- b =a2 g [=Af]2- [Af] [Bd]2- | %19
 [Bd] [Ge]2- [Ge][=Ad][Ac] [Ad][FB][^F=B] [=EB][E_Bc][=FAc] | %20
 [Ad]/-[Ad]/8-[GAd]/8B/8e/8 g2 =A/^A/=B/A/^c/d/ g/-g/4^e/4 e2 _e-e/f/e/d/ | %21
 e/f/g/=B/c/_d/ c/f/=e/a/g/_d'/ c'/g/4g/4 b2- b a2 | g f2- f/-f/4-[=ef]/8f/8gg d _e2- e c2- | %23
 cB/d'^c'/ =c'/=b/4^a/=a/^g/4=A/4^A/4=B/4c/4 ^c/4d/4=g/8-[^e-g]/8e/8^d/8 d4- d- | %24
 d e2- efe f g4- g- | g e2- e-e/f/e/f/ e/f/ g2 ee'd' | c' b2 =a^gc def/e/ d/e/4e/4g'f'/e'/ | %27
 d'/c'/=b^a =aa/^g/g/=g/ g/-g/4^e/4 ^d4- d- | %28
 d e2- e-e/4-e/8f/4-f/8e/4-e/8f/4-f/8e/4-e/8f/4-f/8e/4-e/8f/4-f/8 g2- g z2 | %29
 z eA/B/ A/G/A/=B/^d/^g/ ^d'/ z/4 f'/4g'e' [e'e'']2 [=d'd''] | %30
 [c'c''][=b=b'][^a^a'] [=a=a'][^g^g'][=g=g'] [dd'][ee'] [e'e'']2- [e'e''][ff'] | %31
 [c'c''] [=b=b']4- [bb']2 z2 [^a^a']2- [aa']- | %32
 [aa']2- [aa'] =b'/^a'/c''/=a'/b'/^a'/ c''/=a'/b'/^a'/c''/=a'/ b'/^a'/c''/=a'/b'/^a'/ | %33
 c''/=a'/=b'/^a'/c''/=a'/ b'/^a'/c''/=a'/b'/^a'/ c''/=a'/b'/^a'/c''/=a'/ b'/^a'/c''/=a'/b'/^a'/ | %34
 c''/=a'/=b'/^a'/c''/=a'/ b'/^a'/d''/c''/_b'/=a'/ ^g'/=g'/f'/d'/e'/=b/ ^a^gc | %35
 d[Ge]B g[Ge]B g[Ge]B g[Ge]B | g [Ge]2- [Ge] [ge']2- [ge'] [G,^D]4- [G,D]- | [G,D] z z2 z8 |] %38
V:2
 z E,,[G,E] [B,EG]E,[A,D] [=B,DA]E,,[G,E] [_B,EG]D,,[G,E] | %1
 [B,EG]C,,[G,=E] [B,EG]C,[G,E] [CEB]F,,[F,_D] [B,=DE]F,,[F,C] | %2
 [A,CF]B,,[F,D] [B,DA]=B,,[G,F] [DFG]C,[G,E] [CEG]=A,,[^F,E] | %3
 [CE_G]B,,[F,E] [B,EA]B,,,[F,D] [B,A]E,,[G,E] [B,E=G]E,[G,E] | %4
 [B,EG]E,[G,E] [B,EG]E,[A,D] [=B,DA]E,[G,E] [_B,EG]D,[G,E] | %5
 [B,EG]C,[G,=E] [B,EG]C,[G,E] [CEB]F,,[F,_D] [B,^CE]F,,[F,=C] | %6
 [A,CF]B,,[F,D] [B,DA]=B,,[G,F] [DFG]C,[G,E] [CEG]=A,,[^F,E] | %7
 [CE_G]B,,[F,E] [B,EA]B,,,[F,D] [B,A]E,,[G,E] [B,E=G]E,[G,E] | %8
 [B,EG]B,,[F,D] [B,DF]B,,[F,D] [B,DF]=A,,[F,C] [CF]A,,[F,C] | %9
 [CF]A,,[E,C] [A,CE]A,,,[E,_C] [A,CE]E,,[G,E] [B,EG]E,[G,E] | %10
 [B,EG]=E,,[=E,^C] [B,_DG]E,,[E,=C] [B,CG]F,,[F,E] [CEF]G,,[G,=D] | %11
 [B,DG]C,,[G,E] [CEG]F,,[F,E] [CEF][B,D][=A,E] _A,G,[F,CE] | %12
 [B,F]E,,[G,E] [B,EG]E,[A,D] [B,DA]E,[G,E] [B,G]D,[G,E] | %13
 [B,EG]C,[G,=E] [B,EG]C,[G,E] [CEB]F,,[F,_D] [B,=DE]F,,[F,C] | %14
 [A,CF]B,,[F,D] [B,DA]_C,[G,F] [DFG]=C,[G,E] [CEG]=A,,[_G,E] | %15
 [CE_G]B,,[F,E] [B,EA]B,,,[F,D] [B,DA]E,,[G,E] [B,=G]E,[G,E] | %16
 [B,G]B,,[F,D] [B,DF]B,,[F,D] [B,DF]=A,,[F,C] [CF]A,,[F,C] | %17
 [CF]A,,[E,C] [A,CE]A,,,[E,_C] [A,CE]E,,[G,E] [B,EG]E,[G,E] | %18
 [B,EG]=E,,[=E,^C] [B,_DG]E,,[E,=C] [B,CG]F,,[F,E] [CE=A]G,,[G,=D] | %19
 [B,DB]C,,[G,E] [CEG]F,,[F,E] [CEF][B,D][__B,E] A,G,[F,CE] | %20
 [B,F]E,,[G,E] [B,EG]E,[A,D] [B,DA]E,[G,E] [B,EG]D,[G,E] | %21
 [B,EG]C,[G,=E] [B,EG]C,[G,E] [CEB]F,,[F,B,^C] [B,DE]F,,[F,=C] | %22
 [A,CF]B,,[F,D] [B,DA]_C,[G,F] [DFG]=C,[G,E] [CEG]=A,,[^F,E] | %23
 [CE_G]B,,[F,E] [B,EA]B,,,[F,D] [B,DA]E,,[G,E] [B,E=G]E,[G,E] | %24
 [B,EG]E,,[A,_CE] [CEA]E,[A,CE] [CEA]E,,[G,E] [B,EG]E,[G,E] | %25
 [B,EG]E,,[A,_CE] [CEA]E,[A,CE] [CEA]E,,[G,B,E] [B,EG]E,[G,E] | %26
 [B,EG]E,[F,D] [B,A]E,[F,D] [B,A]E,[G,E] [B,G]=A,,[F,E] | %27
 [CEF]B,,[F,E] [B,EA]B,,,[F,D] [B,DA]E,,[G,E] [B,EG]E,[G,E] | %28
 [B,EG]A,,,[E,A,_C] [A,CE][CEA][A,CE] [E,A,C]E,,[G,E] [B,EG]E,[G,E] | %29
 [B,EG]A,,,[E,A,_C] [A,CE][E,A,C][A,CE] [E,A,C]E,,[G,E] [B,EG]=A,,[F,E] | %30
 [_CEF]B,,[F,B,E] [B,EA]=B,,[G,F] [DFG]C,[G,E] [=CG]=A,,[F,-CE] | %31
 [F,CEF]B,,,B,, F,A,D B,FA d2- d- | d2- d z z8 | z4 z8 | z4 z8 | %35
 z E,,B,- [B,,B,]E,B,- [B,,B,]E,,B,- [B,,B,]E,B,- | %36
 [B,,B,-] [E,B,]2- [E,B,] [EB]2- [EB] [E,,B,,]4- [E,,B,,]- | [E,,B,,] z z2 z8 |] %38

